src/sources/forus-webshop/resources/_webshop-common/assets/img/reservation-finish.svg

<svg width="82" height="83" viewBox="0 0 82 83" fill="none" xmlns="http://www.w3.org/2000/svg">
<rect y="0.5" width="82" height="82" rx="41" fill="url(#paint0_linear_228_1211)"/>
<g clip-path="url(#clip0_228_1211)">
<path d="M41 20.5C29.4206 20.5 20 29.9207 20 41.5002C20 53.0796 29.4206 62.5 41 62.5C52.5794 62.5 62 53.0796 62 41.5002C62 29.9207 52.5794 20.5 41 20.5ZM41 58.6819C31.5258 58.6819 23.8182 50.9742 23.8182 41.5002C23.8182 32.0261 31.5258 24.3182 41 24.3182C50.4742 24.3182 58.1819 32.0261 58.1819 41.5002C58.1819 50.9742 50.4741 58.6819 41 58.6819Z" fill="#CEE4F9"/>
<path fill-rule="evenodd" clip-rule="evenodd" d="M55.4721 26.2971L53 29.2149C54.0682 30.2585 55.0012 31.4399 55.7701 32.73L58.0517 29.2563C57.2847 28.1911 56.4204 27.2003 55.4721 26.2971Z" fill="#004195"/>
<path d="M39.8385 52.0716C38.8139 52.0716 37.8371 51.6343 37.1665 50.8691L28.722 41.2262C27.4575 39.7817 27.6284 37.6081 29.104 36.3703C30.5791 35.1312 32.7999 35.2985 34.0659 36.7437L39.5865 43.0472L57.0343 22.4542C59.7352 18.7513 62.562 20.8018 59.8493 24.5205L42.7012 50.6292C42.0721 51.4908 41.0735 52.0213 39.9933 52.0682C39.9411 52.0703 39.8899 52.0716 39.8385 52.0716Z" fill="#315EFD"/>
</g>
<defs>
<linearGradient id="paint0_linear_228_1211" x1="0" y1="0.5" x2="82" y2="82.5" gradientUnits="userSpaceOnUse">
<stop stop-color="#E5EAF8"/>
<stop offset="1" stop-color="#F9FAFF" stop-opacity="0"/>
</linearGradient>
<clipPath id="clip0_228_1211">
<rect width="42" height="42" fill="white" transform="translate(20 20.5)"/>
</clipPath>
</defs>
</svg>

<svg width="82" height="83" fill="none" xmlns="http://www.w3.org/2000/svg"><rect y=".5" width="82" height="82" rx="41" fill="url(#a)"/><g clip-path="url(#b)"><path d="M41 20.5c-11.58 0-21 9.42-21 21s9.42 21 21 21 21-9.42 21-21-9.42-21-21-21Zm0 38.182c-9.474 0-17.182-7.708-17.182-17.182 0-9.474 7.708-17.182 17.182-17.182 9.474 0 17.182 7.708 17.182 17.182 0 9.474-7.708 17.182-17.182 17.182Z" fill="#CEE4F9"/><path fill-rule="evenodd" clip-rule="evenodd" d="M55.472 26.297 53 29.215a17.296 17.296 0 0 1 2.77 3.515l2.282-3.474a21.176 21.176 0 0 0-2.58-2.959Z" fill="#004195"/><path d="M39.839 52.072a3.553 3.553 0 0 1-2.672-1.203l-8.445-9.643a3.393 3.393 0 0 1 .382-4.856c1.475-1.239 3.696-1.072 4.962.374l5.52 6.303 17.448-20.593c2.701-3.703 5.528-1.652 2.815 2.066L42.701 50.63a3.54 3.54 0 0 1-2.862 1.442Z" fill="#315EFD"/></g><defs><linearGradient id="a" x1="0" y1=".5" x2="82" y2="82.5" gradientUnits="userSpaceOnUse"><stop stop-color="#E5EAF8"/><stop offset="1" stop-color="#F9FAFF" stop-opacity="0"/></linearGradient><clipPath id="b"><path fill="#fff" d="M20 20.5h42v42H20z"/></clipPath></defs></svg>
